X: 10161
M: 3/4
L: 1/8
K: Bb
{c}B>AB2d2 | {g}f>=ef2d2 | b>ab2g2 | {g}f>=ef2d2 |\
{c}B>AB2d2 | {g}f>=ef2d2 | c>de2A2 | B2z2 :|
c2 |\
a2f2=ed | c3=efg | a2f2=ed | (cf)g=ef2 |\
a2f2=ed | c3=efg | (f>=e)d>cd>e | f2z2 |]
(.b>.a)b2f>d | B>df2d2 | c>de2A2 | B>df2(d>f) |\
(.b>.a)b2f>d | B>df2d2 | c>de2A2 | B2z2 |]
|: B2 |\


